packages/icons/src/assets/raw/outlined/SVG/outlined-content-health.svg

<svg viewBox="0 0 24 24" xmlns="http://www.w3.org/2000/svg">
  <path d="M 13.79 13.93 C 13.74 13.94 13.69 13.94 13.64 13.93 C 13.496 13.885 13.378 13.779 13.32 13.64 L 11.89 10 L 10.4 12.29 C 10.319 12.419 10.182 12.501 10.03 12.51 C 9.881 12.522 9.734 12.467 9.63 12.36 L 8.39 11.08 L 7.8 12.24 C 7.716 12.406 7.546 12.511 7.36 12.51 L 3.5 12.51 C 3.22 12.51 2.994 12.28 3 12 C 3 11.724 3.224 11.5 3.5 11.5 L 7.05 11.5 L 7.81 10 C 7.965 9.69 8.381 9.628 8.62 9.88 L 9.91 11.22 L 11.58 8.69 C 11.686 8.538 11.865 8.454 12.05 8.47 C 12.235 8.485 12.395 8.606 12.46 8.78 L 14 12.66 L 15.51 11.6 C 15.597 11.545 15.697 11.514 15.8 11.51 L 20.5 11.51 C 20.776 11.51 21 11.734 21 12.01 C 21 12.286 20.776 12.51 20.5 12.51 L 16 12.51 L 14.1 13.84 C 14.011 13.906 13.901 13.938 13.79 13.93 Z M 12 21.33 C 11.628 21.339 11.268 21.199 11 20.94 C 9.05 19.073 7.264 17.042 5.66 14.87 C 5.429 14.562 5.618 14.12 6 14.074 C 6.178 14.052 6.353 14.127 6.46 14.27 C 8.035 16.395 9.785 18.385 11.69 20.22 C 11.846 20.372 12.094 20.372 12.25 20.22 C 14.155 18.385 15.905 16.395 17.48 14.27 C 17.711 13.962 18.189 14.02 18.34 14.374 C 18.41 14.538 18.387 14.727 18.28 14.87 C 16.695 17.039 14.929 19.07 13 20.94 C 12.732 21.199 12.372 21.339 12 21.33 Z M 19.87 10 C 19.814 10.01 19.756 10.01 19.7 10 C 19.436 9.911 19.3 9.62 19.4 9.36 C 19.561 8.91 19.649 8.438 19.66 7.96 C 19.875 5.856 18.335 3.98 16.23 3.78 C 16.027 3.765 15.823 3.765 15.62 3.78 C 14.368 3.755 13.176 4.317 12.4 5.3 C 12.192 5.55 11.808 5.55 11.6 5.3 C 10.847 4.296 9.666 3.703 8.41 3.7 C 6.302 3.54 4.469 5.131 4.33 7.24 C 4.315 7.443 4.315 7.647 4.33 7.85 C 4.341 8.342 4.432 8.828 4.6 9.29 C 4.7 9.55 4.564 9.841 4.3 9.93 C 4.04 10.024 3.754 9.889 3.66 9.63 C 3.463 9.077 3.355 8.497 3.34 7.91 C 3.32 7.667 3.32 7.423 3.34 7.18 C 3.516 4.533 5.803 2.529 8.45 2.7 C 9.791 2.713 11.07 3.265 12 4.23 C 12.942 3.263 14.23 2.712 15.58 2.7 C 15.826 2.68 16.074 2.68 16.32 2.7 C 18.989 2.952 20.939 5.334 20.66 8 C 20.641 8.573 20.533 9.14 20.34 9.68 C 20.265 9.874 20.078 10.001 19.87 10 Z"/>
</svg>

<svg xmlns="http://www.w3.org/2000/svg" viewBox="0 0 24 24">
  <path d="M12 21.33a1.39 1.39 0 01-1-.39 47.35 47.35 0 01-5.34-6.07.5.5 0 11.8-.6 47.7 47.7 0 005.23 5.95.4.4 0 00.56 0 47.7 47.7 0 005.23-5.95.5.5 0 01.8.6A47.35 47.35 0 0113 20.94a1.39 1.39 0 01-1 .39zM19.87 10a.47.47 0 01-.17 0 .49.49 0 01-.3-.64 4.45 4.45 0 00.26-1.4 3.81 3.81 0 00-3.43-4.18 4.14 4.14 0 00-.61 0A4 4 0 0012.4 5.3a.52.52 0 01-.8 0 4 4 0 00-3.19-1.6 3.8 3.8 0 00-4.08 3.54 4.12 4.12 0 000 .61 4.49 4.49 0 00.27 1.44.49.49 0 01-.3.64.5.5 0 01-.64-.3 5.57 5.57 0 01-.32-1.72 4.4 4.4 0 010-.73A4.81 4.81 0 018.45 2.7 5 5 0 0112 4.23a5.06 5.06 0 013.58-1.53 4.61 4.61 0 01.74 0A4.82 4.82 0 0120.66 8a5.55 5.55 0 01-.32 1.68.5.5 0 01-.47.32z"/>
  <path d="M13.79 13.93a.39.39 0 01-.15 0 .51.51 0 01-.32-.29L11.89 10l-1.49 2.29a.47.47 0 01-.37.22.5.5 0 01-.4-.15l-1.24-1.28-.59 1.16a.49.49 0 01-.44.27H3.5A.5.5 0 013 12a.5.5 0 01.5-.5h3.55l.76-1.5a.5.5 0 01.81-.12l1.29 1.34 1.67-2.53a.52.52 0 01.47-.22.48.48 0 01.41.31L14 12.66l1.51-1.06a.58.58 0 01.29-.09h4.7a.5.5 0 01.5.5.5.5 0 01-.5.5H16l-1.9 1.33a.47.47 0 01-.31.09z"/>
</svg>
